X:1
T:Devil and the Dirk, The
M:C|
L:1/8
R:Reel
S:Skinner - The Scottish Violinist
Z:AK/Fiddler's Companion
K:D
{c}D | D/D/D FD AD {c}d2 | AD.F.D C(EE)F | D/D/D FD AD {c}d2 | AF .G.E F(DD) :|
|| c' | d'ddd' c'ccc' | bBBb aAAa | gGGg fFFf | eBed ceac' | d'ddd' c'ccc' |
bBBb aAAa | geag fae'b | (af).g.e fdd || [A,4D4] ||

